X:51
T:Waltz
S:John Moore's Book 2
Z:Transcribed Steve Mansfield 04/2021
%%VWML: Moore2-4494-p39-0
F:http://www.vwml.org/record/Moore2/4494/p39
M:3/8
L:1/8
K:D
A(f/e/)d | A(f/e/)d | A(e/d/)c | d/f/c'/b/a | 
A(f/e/)d | A(f/e/)d | A/c/e/d/c/d/ | d2 :|
|: (a/g/) |(f/a/)(a/g/)f | (g/b/)(b/a/)g | (f/a/)(a/g/)f | (g/b/)(b/a/)g | 
A(f/e/)d | A(f/e/)d | A/c/e/d/c/d/ | d2 :|
|: a |a>fg/b/ | a>fd/f/ | e>cc/e/ | d/c/d/e/f/g/ | 
a>fg/b/ | a>fd/f/ | e>cc/e/ | d2 :|
|: e/d/ | c/e/a/g/e/c/ | (d/f/b/)a/.f./d/ | (c/e/a/)g/.e/.c/ | (df/).e/.c/.d/ | 
c/e/a/g/e/c/ | (d/f/)(b/a/).f/.d/ | c/e/a/^g/=g/e/ | d2 :|

